src/svg/iconoTeatro.svg

<svg xmlns="http://www.w3.org/2000/svg" xmlns:xlink="http://www.w3.org/1999/xlink" width="50px" zoomAndPan="magnify" viewBox="0 0 375 374.999991" preserveAspectRatio="xMidYMid meet" version="1.0"><rect x="-37.5" width="450" fill="#ffffff" y="-37.499999" height="449.999989" fill-opacity="1"/><rect x="-37.5" width="450" fill="#efeadd" y="-37.499999" height="449.999989" fill-opacity="1"/><path fill="#f14161" d="M 302.03125 207.253906 C 288.003906 207.441406 276.476562 197.039062 276.300781 184 C 276.257812 180.828125 276.902344 177.789062 278.089844 175.007812 C 282.019531 183.519531 291.191406 189.433594 301.792969 189.285156 C 312.398438 189.140625 321.40625 182.984375 325.09375 174.363281 C 326.359375 177.109375 327.082031 180.128906 327.128906 183.3125 C 327.300781 196.347656 316.070312 207.0625 302.03125 207.253906 Z M 301.105469 291.457031 C 294.75 277.664062 279.898438 268.082031 262.722656 268.3125 C 245.53125 268.550781 230.941406 278.527344 224.972656 292.496094 C 222.914062 288.039062 221.742188 283.140625 221.671875 277.984375 C 221.386719 256.886719 239.589844 239.523438 262.328125 239.210938 C 285.058594 238.902344 303.714844 255.761719 304 276.867188 C 304.074219 282.015625 303.039062 286.945312 301.105469 291.457031 Z M 196.027344 185.097656 C 195.984375 181.921875 196.625 178.878906 197.816406 176.09375 C 201.742188 184.617188 210.910156 190.527344 221.515625 190.378906 C 232.121094 190.238281 241.121094 184.074219 244.808594 175.457031 C 246.082031 178.207031 246.796875 181.226562 246.84375 184.40625 C 247.023438 197.445312 235.792969 208.15625 221.765625 208.34375 C 207.722656 208.535156 196.203125 198.132812 196.027344 185.097656 Z M 360.472656 134.886719 C 331.59375 141.273438 296.3125 116.648438 258.699219 117.164062 C 222.679688 117.652344 189.460938 143.5 161.183594 138.351562 C 158.316406 149.71875 156.855469 161.765625 157.023438 174.242188 C 157.929688 241.140625 209.433594 343.382812 263.722656 342.644531 C 325.316406 341.8125 366.726562 238.300781 365.816406 171.398438 C 365.644531 158.648438 363.777344 146.394531 360.472656 134.886719 " fill-opacity="1" fill-rule="nonzero"/><path fill="#d770be" d="M 176.824219 135.132812 C 172.902344 126.609375 163.726562 120.707031 153.121094 120.847656 C 142.519531 120.992188 133.511719 127.140625 129.816406 135.769531 C 128.558594 133.011719 127.828125 129.992188 127.777344 126.816406 C 127.605469 113.785156 138.839844 103.066406 152.878906 102.878906 C 166.910156 102.679688 178.4375 113.089844 178.609375 126.125 C 178.65625 129.300781 178.011719 132.339844 176.824219 135.132812 Z M 114.324219 220.175781 C 91.589844 220.484375 72.925781 203.625 72.636719 182.511719 C 72.570312 177.367188 73.605469 172.4375 75.542969 167.925781 C 81.898438 181.730469 96.742188 191.304688 113.933594 191.066406 C 131.109375 190.832031 145.695312 180.859375 151.671875 166.890625 C 153.726562 171.34375 154.898438 176.246094 154.96875 181.394531 C 155.253906 202.5 137.058594 219.859375 114.324219 220.175781 Z M 49.550781 136.863281 C 48.273438 134.113281 47.554688 131.085938 47.507812 127.910156 C 47.335938 114.875 58.570312 104.164062 72.601562 103.964844 C 86.632812 103.78125 98.152344 114.1875 98.332031 127.214844 C 98.375 130.394531 97.734375 133.433594 96.539062 136.21875 C 92.613281 127.695312 83.449219 121.792969 72.839844 121.941406 C 62.238281 122.082031 53.234375 128.234375 49.550781 136.863281 Z M 211.75 63.082031 C 182.875 69.472656 147.605469 44.84375 109.980469 45.351562 C 73.96875 45.847656 40.746094 71.699219 12.46875 66.546875 C 9.605469 77.914062 8.136719 89.960938 8.300781 102.433594 C 9.210938 169.335938 60.703125 271.582031 115.015625 270.84375 C 176.601562 270.003906 218.015625 166.496094 217.105469 99.589844 C 216.933594 86.84375 215.058594 74.585938 211.75 63.082031 " fill-opacity="1" fill-rule="nonzero"/></svg>

<?xml version="1.0" encoding="UTF-8"?>
<svg width="50px" version="1.0" viewBox="0 0 375 375" xmlns="http://www.w3.org/2000/svg" zoomAndPan="magnify">
<rect x="-37.5" y="-37.5" width="450" height="450" fill="#fff"/>
<rect x="-37.5" y="-37.5" width="450" height="450" fill="#efeadd"/>
<path d="m302.03 207.25c-14.027 0.1875-25.555-10.215-25.73-23.254-0.042969-3.1719 0.60156-6.2109 1.7891-8.9922 3.9297 8.5117 13.102 14.426 23.703 14.277 10.605-0.14453 19.613-6.3008 23.301-14.922 1.2656 2.7461 1.9883 5.7656 2.0352 8.9492 0.17188 13.035-11.059 23.75-25.098 23.941zm-0.92578 84.203c-6.3555-13.793-21.207-23.375-38.383-23.145-17.191 0.23828-31.781 10.215-37.75 24.184-2.0586-4.457-3.2305-9.3555-3.3008-14.512-0.28516-21.098 17.918-38.461 40.656-38.773 22.73-0.30859 41.387 16.551 41.672 37.656 0.074219 5.1484-0.96094 10.078-2.8945 14.59zm-105.08-106.36c-0.042969-3.1758 0.59766-6.2188 1.7891-9.0039 3.9258 8.5234 13.094 14.434 23.699 14.285 10.605-0.14062 19.605-6.3047 23.293-14.922 1.2734 2.75 1.9883 5.7695 2.0352 8.9492 0.17969 13.039-11.051 23.75-25.078 23.938-14.043 0.19141-25.562-10.211-25.738-23.246zm164.45-50.211c-28.879 6.3867-64.16-18.238-101.77-17.723-36.02 0.48828-69.238 26.336-97.516 21.188-2.8672 11.367-4.3281 23.414-4.1602 35.891 0.90625 66.898 52.41 169.14 106.7 168.4 61.594-0.83203 103-104.34 102.09-171.25-0.17188-12.75-2.0391-25.004-5.3438-36.512" fill="#f14161"/>
<path d="m176.82 135.13c-3.9219-8.5234-13.098-14.426-23.703-14.285-10.602 0.14453-19.609 6.293-23.305 14.922-1.2578-2.7578-1.9883-5.7773-2.0391-8.9531-0.17188-13.031 11.062-23.75 25.102-23.938 14.031-0.19922 25.559 10.211 25.73 23.246 0.046875 3.1758-0.59766 6.2148-1.7852 9.0078zm-62.5 85.043c-22.734 0.30859-41.398-16.551-41.688-37.664-0.066407-5.1445 0.96875-10.074 2.9062-14.586 6.3555 13.805 21.199 23.379 38.391 23.141 17.176-0.23438 31.762-10.207 37.738-24.176 2.0547 4.4531 3.2266 9.3555 3.2969 14.504 0.28516 21.105-17.91 38.465-40.645 38.781zm-64.773-83.312c-1.2773-2.75-1.9961-5.7773-2.043-8.9531-0.17187-13.035 11.062-23.746 25.094-23.945 14.031-0.18359 25.551 10.223 25.73 23.25 0.042969 3.1797-0.59766 6.2188-1.793 9.0039-3.9258-8.5234-13.09-14.426-23.699-14.277-10.602 0.14062-19.605 6.293-23.289 14.922zm162.2-73.781c-28.875 6.3906-64.145-18.238-101.77-17.73-36.012 0.49609-69.234 26.348-97.512 21.195-2.8633 11.367-4.332 23.414-4.168 35.887 0.91016 66.902 52.402 169.15 106.71 168.41 61.586-0.83984 103-104.35 102.09-171.25-0.17188-12.746-2.0469-25.004-5.3555-36.508" fill="#d770be"/>
</svg>
